X:1
T: Three a Penny
C:
R:Strathspey
Q: 128
K:D
M:4/4
L:1/16
|:d3e f3d g3e f3d|Be3 e3d ce3 e3f|d3e f3d g3e f3d|Be3 c3A d4-d2A2|
d3e f3d g3e f3d|Be3 e3d ce3 e3f|d3e f3d g3e f3d|Be3 c3A d4-d2A2|
a3f d3f a3f d3f|g3f e3d ce3 e3f|a3f d3f a3f d3f|Be3 c3A d4-d2A2|
a3f d3f a3f d3f|g3f e3d ce3 e3f|a3f d3f a3f d3f|Be3 c3A d4-d4:|
